assets/icons/moduleIcons/rack.svg

<svg width="50" height="50" viewBox="0 0 50 50" fill="none" xmlns="http://www.w3.org/2000/svg">
<path d="M31.74 27.71H40.07C40.0822 27.6305 40.0822 27.5495 40.07 27.47C40.0567 27.398 40.0219 27.3317 39.97 27.28L34.39 14.18H15.66L10.08 27.28C10.0281 27.3317 9.99321 27.398 9.97998 27.47C9.95093 27.5469 9.93406 27.6279 9.92998 27.71H18.26L20.77 32.77H29.23L31.74 27.71ZM45.27 28.46V41.19C45.2746 41.4081 45.2354 41.625 45.1546 41.8277C45.0739 42.0303 44.9533 42.2148 44.8 42.37C44.4707 42.6929 44.0311 42.8788 43.57 42.89H6.42998C6.2073 42.8944 5.98634 42.8502 5.78252 42.7604C5.57871 42.6706 5.39696 42.5373 5.24998 42.37C4.94368 42.0498 4.75962 41.6321 4.72998 41.19V28.46C4.73658 27.357 4.96086 26.2661 5.38998 25.25L11.68 10.68C11.8775 10.1995 12.2293 9.79845 12.68 9.53999C13.061 9.25598 13.5248 9.10491 14 9.10999H36C36.4871 9.12704 36.9605 9.27562 37.37 9.53999C37.8355 9.77981 38.1928 10.1872 38.37 10.68L44.66 25.25C45.0891 26.2661 45.3134 27.357 45.32 28.46H45.27Z" fill="#000"/>
</svg>

<svg xmlns="http://www.w3.org/2000/svg" viewBox="0 0 50 50"><g id="casier"><path id="path1415" fill="#000" d="M31.74,27.71h8.33a.79.79,0,0,0,0-.24.36.36,0,0,0-.1-.19l-5.58-13.1H15.66l-5.58,13.1a.36.36,0,0,0-.1.19.79.79,0,0,0-.05.24h8.33l2.51,5.06h8.46Zm13.53.75V41.19a1.63,1.63,0,0,1-.47,1.18,1.82,1.82,0,0,1-1.23.52H6.43a1.53,1.53,0,0,1-1.18-.52,1.89,1.89,0,0,1-.52-1.18V28.46a8.38,8.38,0,0,1,.66-3.21l6.29-14.57a2.34,2.34,0,0,1,1-1.14A2.17,2.17,0,0,1,14,9.11H36a2.7,2.7,0,0,1,1.37.43,2.07,2.07,0,0,1,1,1.14l6.29,14.57a8.38,8.38,0,0,1,.66,3.21Z"/></g></svg>
